tools/download-figma-icons/icons/solid/iban.svg

<svg width="24" height="24" viewBox="0 0 24 24" fill="none" xmlns="http://www.w3.org/2000/svg">
<path fill-rule="evenodd" clip-rule="evenodd" d="M17.0761 10.457H14.6253V19.1208H17.0761V10.457ZM7.58034 10.457H10.3009V19.1208H7.58034V10.457ZM3.25591 10.457H2.31157C1.58459 10.457 1 9.86488 1 9.14539V6.66465C1 6.17749 1.26981 5.72781 1.7045 5.50297L11.8523 0.151767C12.2345 -0.0505891 12.6917 -0.0505891 13.0739 0.151767L23.2292 5.49548C23.6639 5.72032 23.9337 6.17 23.9337 6.65715V9.13789C23.9337 9.86488 23.3417 10.4495 22.6222 10.4495V10.457H21.6778V19.1208H22.6297C23.3566 19.1208 23.9412 19.7129 23.9412 20.4324V22.6883C23.9412 23.4153 23.3491 23.9999 22.6297 23.9999H22.6222H2.31157C1.58459 23.9999 1 23.4078 1 22.6883V20.4324C1 19.7054 1.59208 19.1208 2.31157 19.1208H3.25591V10.457ZM20.1789 19.1134H18.575V10.4571H20.1789V19.1134ZM11.7998 19.1134H13.1264V10.4571H11.7998V19.1134ZM6.07391 19.1134H4.74735V10.4571H6.07391V19.1134Z" fill="black"/>
</svg>

<svg xmlns="http://www.w3.org/2000/svg" width="24" height="24" fill="none" viewBox="0 0 24 24"><path fill="currentColor" fill-rule="evenodd" d="M17.076 10.457h-2.45v8.664h2.45zm-9.496 0h2.72v8.664H7.58zm-4.324 0h-.944A1.313 1.313 0 0 1 1 9.145v-2.48c0-.488.27-.937.704-1.162L11.853.152c.383-.203.84-.203 1.222 0L23.23 5.495c.435.225.705.675.705 1.162v2.48c0 .728-.592 1.313-1.312 1.313v.007h-.944v8.664h.952c.727 0 1.311.592 1.311 1.311v2.256c0 .727-.592 1.312-1.311 1.312H2.312A1.313 1.313 0 0 1 1 22.688v-2.256c0-.727.592-1.311 1.312-1.311h.944zm16.923 8.656h-1.604v-8.656h1.604zm-8.38 0h1.327v-8.656H11.8zm-5.725 0H4.747v-8.656h1.327z" clip-rule="evenodd"/></svg>
